docs/img/ico-table-sort-desc.svg

<?xml version="1.0" encoding="utf-8"?>
<svg width="10px" height="16px" viewbox="0 0 10 16" version="1.1" xmlns:xlink="http://www.w3.org/1999/xlink" xmlns="http://www.w3.org/2000/svg">
  <g id="Group-2-Copy">
    <path d="M9.8499 4.63849L5.36159 0.149729C5.16176 -0.0499098 4.8381 -0.0499098 4.6385 0.149729L0.149705 4.63849C-0.0499017 4.83819 -0.0499017 5.16182 0.149705 5.36152L0.511238 5.72305C0.710845 5.92289 1.03479 5.92289 1.23453 5.72305L5 1.95739L8.76559 5.72305C8.96517 5.92289 9.28895 5.92289 9.48862 5.72305L9.85016 5.36152C10.05 5.16159 10.05 4.83819 9.8499 4.63849Z" transform="matrix(1 0 0 -1 0 15.872925)" id="🎨-Icon-color" fill="#45B374" fill-rule="evenodd" stroke="none" />
    <path d="M9.8499 4.63849L5.36159 0.149729C5.16176 -0.0499098 4.8381 -0.0499098 4.6385 0.149729L0.149705 4.63849C-0.0499017 4.83819 -0.0499017 5.16182 0.149705 5.36152L0.511238 5.72305C0.710845 5.92289 1.03479 5.92289 1.23453 5.72305L5 1.95739L8.76559 5.72305C8.96517 5.92289 9.28895 5.92289 9.48862 5.72305L9.85016 5.36152C10.05 5.16159 10.05 4.83819 9.8499 4.63849Z" id="🎨-Icon-color" fill="#B6B6B6" fill-rule="evenodd" stroke="none" />
  </g>
</svg>

<svg width="10" height="16" xmlns="http://www.w3.org/2000/svg"><g fill-rule="evenodd"><path d="M9.85 11.234l-4.488 4.49a.514.514 0 01-.724 0L.15 11.233a.51.51 0 010-.723l.361-.361c.2-.2.524-.2.724 0L5 13.916l3.766-3.766c.2-.2.523-.2.723 0l.361.361c.2.2.2.524 0 .723z" fill="#45B374"/><path d="M9.85 4.638L5.362.15c-.2-.2-.524-.2-.724 0L.15 4.638c-.2.2-.2.524 0 .724l.361.361c.2.2.524.2.724 0L5 1.957l3.766 3.766c.2.2.523.2.723 0l.361-.361c.2-.2.2-.524 0-.724z" fill="#B6B6B6"/></g></svg>
